Origami/16x16/apps/roccat.svg

<svg width="16" height="16" version="1" xmlns="http://www.w3.org/2000/svg">
 <path transform="matrix(0,-1,-1,0,0,0)" d="m-8-16c0.2856425 0 0.5676961 0.01482 0.8454369 0.04374 1.8170481 0.189187 1.1545631 2.404987 2.6364255 2.809929 2.0275692 0.554063 3.8831474 3.146333 4.2115906 4.9711633 0.062056 0.344783 0.28425427 0.8704175 0.24100427 1.2086087-0.50391355 3.9403243-3.8527803 6.966559-7.9344573 6.966559-2.942294 0-5.503798-1.572525-6.893348-3.9264123-0.703539-1.1917909-0.230804-2.693363-0.230804-4.1830688 0-2.4193859 1.610656-3.7930389 3.297288-5.2576189 0.360615-0.313138-0.673528-1.27318-0.260218-1.518264 1.194771-0.708473 2.59175-1.114636 4.087082-1.114636z" style="fill:#4f4f4f"/>
 <path d="m7.8710938 0.00585938c-0.0499356 7.8961e-4 -0.0987338 0.00612062-0.1484376 0.0078125-0.3372117 0.01153279-0.6689926 0.04404234-0.9941406 0.09570312-0.040931 0.006498-0.082329 0.0124196-0.1230468 0.0195313-0.00728 0.007326-0.015625 0.0153175-0.015625 0.0234375 0 0.031614 0.072064 0.0566406 0.1582031 0.0566406 1.2920216 0.16282103 2.6067642 0.61803577 3.6386721 1.3339844 0.787752 0.5554332 1.44321 1.6185878 1.873047 2.4628906 0.238246 0.4679784 0.230094 0.8705465-0.759766 0.5175781-0.763543-0.272266-2.0670048-0.549881-2.1265312-0.484375-0.024436 0.026896-0.0897908 0.187078-0.1445313 0.3554687-0.1039396 0.3197245-0.3313667 0.9566395-0.3769531 0.9110547-0.014532-0.0145439 0.0149959-0.2177487 0.0644531-0.4511719 0.1077476-0.5086012 0.1125659-1.0768327 0.0253907-1.4833202-0.094396-0.4401653-0.1514587-0.4673215-0.6582031-0.3164063-0.2342532 0.0697632-0.7383298 0.1970452-1.1210938 0.28125-0.9620754 0.225679-2.2586165 1.2199311-3.0856494 1.7078334-0.1749739 0.1032246 0.0266418-0.3809506-0.1390606-0.2710064-1.2277475 1.0811358-2.9378213 3.2272355-2.9348913 3.8014543 0.00725 0.5057504 0.3229055 0.8149208 0.6494144 0.9667968 0.1557827 0.072463 0.2954546 0.1966011 0.3652343 0.3261719 0.1124514 0.2088095 0.4158879 0.5078125 0.5175775 0.5078125 0.029508 0 0.03689-0.133731 0.017578-0.296875-0.0391078-0.3301988 0.0956406-0.7040326 0.2910158-0.8085938 0.089915-0.048121 0.1417964-0.0196373 0.2714844 0.1503907 0.1599008 0.2096428 0.4469506 0.4358655 0.4941406 0.3886719 0.01368-0.0136881-0.0429732-0.2017297-0.1269531-0.4160157-0.2304448-0.5880256-0.2096129-0.6770374 0.1074219-0.953125 0.3597395-0.3132756 0.7418856-0.4757904 0.9980468-0.4277343 0.3938948 0.0738947 1.3839149 0.7056809 1.4695469 1.046875 0.0514317 0.2049035-0.0712362 0.4859172-0.296875 0.6757812-0.233652 0.1966044-0.8607692 0.455078-1.0125156 0.455078-0.0637361 0-0.2445854-0.113092-0.4023438-0.251953-0.1577544-0.138864-0.3024798-0.2365792-0.3203125-0.21875-0.01782 0.017836-6.797e-4 0.1361734 0.035156 0.265625 0.035924 0.12945 0.06427 0.270403 0.064453 0.3125 8e-4 0.135053-0.3420582 0.08251-0.703125-0.107422-0.1920681-0.101034-0.3596269-0.183594-0.3730469-0.183594-0.11231 0 0.3034393 1.430765 0.4980469 1.689453 0.144492 0.192072 0.2895506 0.294519 0.4746094 0.306641 0.2455547 0.01608 0.5599065-0.128671 1.0292968-0.443359 0.7793885-0.522518 1.5400329-1.396078 2.3203126-1.52307 0.4278268-0.069631 0.6475679 0.01661 0.9589843 0.376953 0.4278388 0.49505 1.8068683 3.268469 1.7069223 3.528929-1.0644229 0.685043-2.6352515 1.048401-3.8104375 1.058594-1.2303616 0.03527-2.1500152-0.437498-3.21875-0.746094 0.011283 9e-3 0.023823 0.01645 0.035156 0.02539 0.3318964 0.261919 0.6851622 0.501327 1.0566406 0.708984 0.1240796 0.06936 0.2527937 0.130512 0.3808594 0.19336 0.095034 0.04647 0.1899814 0.09395 0.2871093 0.136718 0.1052869 0.04654 0.2126758 0.08878 0.3203125 0.13086 0.1237742 0.04818 0.248283 0.09264 0.375 0.134765 0.1083704 0.0362 0.2177139 0.06993 0.328125 0.101563 0.1238155 0.03529 0.2487733 0.06823 0.375 0.09766 0.1100814 0.0258 0.2202136 0.05105 0.3320313 0.07227 0.163273 0.03079 0.329413 0.0554 0.4960937 0.07617 0.078054 0.0098 0.1556164 0.02177 0.234375 0.0293 0.2540005 0.024099 0.5109646 0.039054 0.7714847 0.039054 0.3155967 0 0.6238945-0.02517 0.9296875-0.05664 0.2290017-0.02631 0.457099-0.05843 0.6796875-0.103515 0.00264-4.85e-4 0.00517-0.0015 0.00781-2e-3 0.00203-4.13e-4 0.00383-0.0015 0.00586-2e-3 2.317156-0.473634 4.259201-1.943369 5.371094-3.945313-0.797126-0.407024-2.0945-0.996371-2.910157-1.287109-0.278317-0.09921-0.455531-0.192905-0.423828-0.22461 0.113942-0.113939 2.35646 0.272938 3.396485 0.585938 0.06502 0.01957 0.208451 0.06548 0.333984 0.107422 0.06-0.144872 0.108548-0.294287 0.160156-0.44336-0.158827-0.0835-0.333531-0.175084-0.417969-0.220703-0.831555-0.4491893-2.081286-0.9030292-3.275388-1.18936-1.063951-0.2551224-1.019672-0.2409782-0.902344-0.3066406 0.217556-0.1217512 2.954082 0.1396961 4.345703 0.4140625 0.0614 0.012103 0.341932 0.062033 0.566407 0.1035156 0.03693-0.2061017 0.07087-0.4136413 0.0918-0.625-0.289331-0.1336528-0.628645-0.2672941-1.001957-0.4023437-1.140055-0.4124264-2.771963-0.6448817-4.236328-0.7285157-0.624694-0.03568-0.8567235-0.1604038-0.703125-0.2246093 0.980189-0.1813957 1.182112-0.4492188 3.044922-0.4492188 0.952326 0.054937 2.009884 0.244915 2.908203 0.4238281-0.254708-3.597361-2.858492-6.5225654-6.3007811-7.2480468-6.211e-4 -1.309e-4 -0.00133 1.3076e-4 -0.00195 0-0.022406-0.004676-0.050109-0.0120396-0.076172-0.0175781-0.1875955-0.03757085-0.3800973-0.06360638-0.5722687-0.08789065-0.3586809-0.04012959-0.764733-0.06073754-1.1484374-0.06445312z" style="fill:#11a0ee"/>
 <path d="m3.9212384 6.0003492c0.025497 0.0018 0.045464 0.00989 0.057062 0.02595 0.115215 0.15947-0.253128 0.7903446-0.5217046 0.8936036-0.4668589 0.1794961-0.5739532 0.0581206-0.3293256-0.3723345 0.1412573-0.2485631 0.6153806-0.5594451 0.7939682-0.5472186z" style="fill:#ffffff"/>
</svg>

<svg xmlns="http://www.w3.org/2000/svg" width="16" height="16" version="1">
 <path style="fill:#4f4f4f" d="m -8,-16 c 0.2856425,0 0.5676961,0.01482 0.8454369,0.04374 1.8170481,0.189187 1.1545631,2.404987 2.6364255,2.809929 2.0275692,0.554063 3.88314745,3.146333 4.21159063,4.9711633 0.062056,0.344783 0.28425427,0.8704175 0.24100427,1.2086087 C -0.56945625,-3.0262347 -3.918323,0 -8,0 c -2.942294,0 -5.503798,-1.572525 -6.893348,-3.9264123 -0.703539,-1.1917909 -0.230804,-2.693363 -0.230804,-4.1830688 0,-2.4193859 1.610656,-3.7930389 3.297288,-5.2576189 0.360615,-0.313138 -0.673528,-1.27318 -0.260218,-1.518264 C -10.892311,-15.593837 -9.495332,-16 -8,-16 Z" transform="matrix(0,-1,-1,0,0,0)"/>
 <path style="fill:#11a0ee" d="M 7.8710938,0.00585938 C 7.8211582,0.00664899 7.77236,0.01198 7.7226562,0.01367188 7.3854445,0.02520467 7.0536636,0.05771422 6.7285156,0.109375 6.6875846,0.115873 6.6461866,0.1217946 6.6054688,0.1289063 c -0.00728,0.007326 -0.015625,0.0153175 -0.015625,0.0234375 0,0.031614 0.072064,0.0566406 0.1582031,0.0566406 1.2920216,0.16282103 2.6067642,0.61803577 3.6386721,1.3339844 0.787752,0.5554332 1.44321,1.6185878 1.873047,2.4628906 C 12.498012,4.4738378 12.48986,4.8764059 11.5,4.5234375 10.736457,4.2511715 9.4329952,3.9735565 9.3734688,4.0390625 9.3490328,4.0659585 9.283678,4.2261405 9.2289375,4.3945312 9.1249979,4.7142557 8.8975708,5.3511707 8.8519844,5.3055859 8.8374524,5.291042 8.8669803,5.0878372 8.9164375,4.854414 9.0241851,4.3458128 9.0290034,3.7775813 8.9418282,3.3710938 8.8474322,2.9309285 8.7903695,2.9037723 8.2836251,3.0546875 8.0493719,3.1244507 7.5452953,3.2517327 7.1625313,3.3359375 6.2004559,3.5616165 4.9039148,4.5558686 4.0768819,5.0437709 3.901908,5.1469955 4.1035237,4.6628203 3.9378213,4.7727645 2.7100738,5.8539003 1,8 1.00293,8.5742188 1.01018,9.0799692 1.3258355,9.3891396 1.6523444,9.5410156 1.8081271,9.6134786 1.947799,9.7376167 2.0175787,9.8671875 2.1300301,10.075997 2.4334666,10.375 2.5351562,10.375 c 0.029508,0 0.03689,-0.133731 0.017578,-0.296875 C 2.5136264,9.7479262 2.6483748,9.3740924 2.84375,9.2695312 2.933665,9.2214102 2.9855464,9.2498939 3.1152344,9.4199219 3.2751352,9.6295647 3.562185,9.8557874 3.609375,9.8085938 3.623055,9.7949057 3.5664018,9.6068641 3.4824219,9.3925781 3.2519771,8.8045525 3.272809,8.7155407 3.5898438,8.4394531 3.9495833,8.1261775 4.3317294,7.9636627 4.5878906,8.0117188 4.9817854,8.0856135 5.9718055,8.7173997 6.0574375,9.0585938 6.1088692,9.2634973 5.9862013,9.544511 5.7605625,9.734375 5.5269105,9.9309794 4.8997933,10.189453 4.7480469,10.189453 4.6843108,10.189453 4.5034615,10.076361 4.3457031,9.9375 4.1879487,9.798636 4.0432233,9.7009208 4.0253906,9.71875 c -0.01782,0.017836 -6.797e-4,0.1361734 0.035156,0.265625 0.035924,0.12945 0.06427,0.270403 0.064453,0.3125 8e-4,0.135053 -0.3420582,0.08251 -0.703125,-0.107422 -0.1920681,-0.101034 -0.3596269,-0.183594 -0.3730469,-0.183594 -0.11231,0 0.3034393,1.430765 0.4980469,1.689453 0.144492,0.192072 0.2895506,0.294519 0.4746094,0.306641 0.2455547,0.01608 0.5599065,-0.128671 1.0292968,-0.443359 0.7793885,-0.522518 1.5400329,-1.396078 2.3203126,-1.52307 0.4278268,-0.069631 0.6475679,0.01661 0.9589843,0.376953 0.4278388,0.49505 1.8068683,3.268469 1.7069223,3.528929 C 8.9725771,14.626449 7.4017485,14.989807 6.2265625,15 c -1.2303616,0.03527 -2.1500152,-0.437498 -3.21875,-0.746094 0.011283,0.009 0.023823,0.01645 0.035156,0.02539 0.3318964,0.261919 0.6851622,0.501327 1.0566406,0.708984 0.1240796,0.06936 0.2527937,0.130512 0.3808594,0.19336 0.095034,0.04647 0.1899814,0.09395 0.2871093,0.136718 0.1052869,0.04654 0.2126758,0.08878 0.3203125,0.13086 0.1237742,0.04818 0.248283,0.09264 0.375,0.134765 0.1083704,0.0362 0.2177139,0.06993 0.328125,0.101563 0.1238155,0.03529 0.2487733,0.06823 0.375,0.09766 0.1100814,0.0258 0.2202136,0.05105 0.3320313,0.07227 0.163273,0.03079 0.329413,0.0554 0.4960937,0.07617 0.078054,0.0098 0.1556164,0.02177 0.234375,0.0293 C 7.4825158,15.985045 7.7394799,16 8,16 c 0.3155967,0 0.6238945,-0.02517 0.9296875,-0.05664 0.2290017,-0.02631 0.457099,-0.05843 0.6796875,-0.103515 0.00264,-4.85e-4 0.00517,-0.0015 0.00781,-0.002 0.00203,-4.13e-4 0.00383,-0.0015 0.00586,-0.002 2.317156,-0.473634 4.259201,-1.943369 5.371094,-3.945313 -0.797126,-0.407024 -2.0945,-0.996371 -2.910157,-1.287109 -0.278317,-0.09921 -0.455531,-0.192905 -0.423828,-0.22461 0.113942,-0.113939 2.35646,0.272938 3.396485,0.585938 0.06502,0.01957 0.208451,0.06548 0.333984,0.107422 0.06,-0.144872 0.108548,-0.294287 0.160156,-0.44336 C 15.391952,10.545313 15.217248,10.453729 15.13281,10.40811 14.301255,9.9589207 13.051524,9.5050808 11.857422,9.21875 10.793471,8.9636276 10.83775,8.9777718 10.955078,8.9121094 c 0.217556,-0.1217512 2.954082,0.1396961 4.345703,0.4140625 0.0614,0.012103 0.341932,0.062033 0.566407,0.1035156 0.03693,-0.2061017 0.07087,-0.4136413 0.0918,-0.625 C 15.669657,8.6710347 15.330343,8.5373934 14.957031,8.4023438 13.816976,7.9899174 12.185068,7.7574621 10.720703,7.6738281 10.096009,7.6381481 9.8639795,7.5134243 10.017578,7.4492188 10.997767,7.2678231 11.19969,7 13.0625,7 c 0.952326,0.054937 2.009884,0.244915 2.908203,0.4238281 -0.254708,-3.597361 -2.858492,-6.52256536 -6.3007811,-7.24804685 -6.211e-4,-1.309e-4 -0.00133,1.3076e-4 -0.00195,0 -0.022406,-0.004676 -0.050109,-0.0120396 -0.076172,-0.0175781 C 9.4042044,0.1206323 9.2117026,0.09459677 9.0195312,0.0703125 8.6608503,0.03018291 8.2547982,0.00957496 7.8710938,0.00585938 Z"/>
 <path style="fill:#ffffff" d="m 3.9212384,6.0003492 c 0.025497,0.0018 0.045464,0.00989 0.057062,0.02595 0.115215,0.15947 -0.253128,0.7903446 -0.5217046,0.8936036 C 2.9897369,7.0993989 2.8826426,6.9780234 3.1272702,6.5475683 3.2685275,6.2990052 3.7426508,5.9881232 3.9212384,6.0003497 Z"/>
</svg>
